svgs/thin/school-flag.svg

<svg xmlns="http://www.w3.org/2000/svg" viewBox="0 0 576 512"><!--! Font Awesome Pro 6.6.0 by @fontawesome - https://fontawesome.com License - https://fontawesome.com/license (Commercial License) Copyright 2024 Fonticons, Inc. --><path d="M400 16l0 64L296 80l0-48 0-16 104 0zM280 83.9L173.4 160 56 160c-30.9 0-56 25.1-56 56L0 456c0 30.9 25.1 56 56 56l168 0 16 0 96 0 16 0 168 0c30.9 0 56-25.1 56-56l0-240c0-30.9-25.1-56-56-56l-117.4 0L313 96l87 0c8.8 0 16-7.2 16-16l0-64c0-8.8-7.2-16-16-16L296 0c-8.8 0-16 7.2-16 16l0 16 0 48 0 3.9zM288 368c26.5 0 48 21.5 48 48l0 80-96 0 0-80c0-26.5 21.5-48 48-48zM520 496l-168 0 0-80c0-35.3-28.7-64-64-64s-64 28.7-64 64l0 80L56 496c-22.1 0-40-17.9-40-40l0-240c0-22.1 17.9-40 40-40l120 0c1.7 0 3.3-.5 4.6-1.5L288 97.8l107.4 76.7c1.4 1 3 1.5 4.6 1.5l120 0c22.1 0 40 17.9 40 40l0 240c0 22.1-17.9 40-40 40zM328 240a40 40 0 1 1 -80 0 40 40 0 1 1 80 0zm-40-56a56 56 0 1 0 0 112 56 56 0 1 0 0-112zM88 224c-13.3 0-24 10.7-24 24l0 48c0 13.3 10.7 24 24 24l48 0c13.3 0 24-10.7 24-24l0-48c0-13.3-10.7-24-24-24l-48 0zm-8 24c0-4.4 3.6-8 8-8l48 0c4.4 0 8 3.6 8 8l0 48c0 4.4-3.6 8-8 8l-48 0c-4.4 0-8-3.6-8-8l0-48zm336 0l0 48c0 13.3 10.7 24 24 24l48 0c13.3 0 24-10.7 24-24l0-48c0-13.3-10.7-24-24-24l-48 0c-13.3 0-24 10.7-24 24zm24-8l48 0c4.4 0 8 3.6 8 8l0 48c0 4.4-3.6 8-8 8l-48 0c-4.4 0-8-3.6-8-8l0-48c0-4.4 3.6-8 8-8zM88 352c-13.3 0-24 10.7-24 24l0 48c0 13.3 10.7 24 24 24l48 0c13.3 0 24-10.7 24-24l0-48c0-13.3-10.7-24-24-24l-48 0zm-8 24c0-4.4 3.6-8 8-8l48 0c4.4 0 8 3.6 8 8l0 48c0 4.4-3.6 8-8 8l-48 0c-4.4 0-8-3.6-8-8l0-48zm336 0l0 48c0 13.3 10.7 24 24 24l48 0c13.3 0 24-10.7 24-24l0-48c0-13.3-10.7-24-24-24l-48 0c-13.3 0-24 10.7-24 24zm24-8l48 0c4.4 0 8 3.6 8 8l0 48c0 4.4-3.6 8-8 8l-48 0c-4.4 0-8-3.6-8-8l0-48c0-4.4 3.6-8 8-8z"/></svg>

<svg xmlns="http://www.w3.org/2000/svg" viewBox="0 0 576 512"><!--! Font Awesome Pro 6.5.2 by @fontawesome - https://fontawesome.com License - https://fontawesome.com/license (Commercial License) Copyright 2024 Fonticons, Inc. --><path d="M400 16V80H296V32 16H400zM280 83.9L173.4 160H56c-30.9 0-56 25.1-56 56V456c0 30.9 25.1 56 56 56H224h16 96 16H520c30.9 0 56-25.1 56-56V216c0-30.9-25.1-56-56-56H402.6L313 96h87c8.8 0 16-7.2 16-16V16c0-8.8-7.2-16-16-16H296c-8.8 0-16 7.2-16 16V32 80v3.9zM288 368c26.5 0 48 21.5 48 48v80H240V416c0-26.5 21.5-48 48-48zM520 496H352V416c0-35.3-28.7-64-64-64s-64 28.7-64 64v80H56c-22.1 0-40-17.9-40-40V216c0-22.1 17.9-40 40-40H176c1.7 0 3.3-.5 4.6-1.5L288 97.8l107.4 76.7c1.4 1 3 1.5 4.6 1.5H520c22.1 0 40 17.9 40 40V456c0 22.1-17.9 40-40 40zM328 240a40 40 0 1 1 -80 0 40 40 0 1 1 80 0zm-40-56a56 56 0 1 0 0 112 56 56 0 1 0 0-112zM88 224c-13.3 0-24 10.7-24 24v48c0 13.3 10.7 24 24 24h48c13.3 0 24-10.7 24-24V248c0-13.3-10.7-24-24-24H88zm-8 24c0-4.4 3.6-8 8-8h48c4.4 0 8 3.6 8 8v48c0 4.4-3.6 8-8 8H88c-4.4 0-8-3.6-8-8V248zm336 0v48c0 13.3 10.7 24 24 24h48c13.3 0 24-10.7 24-24V248c0-13.3-10.7-24-24-24H440c-13.3 0-24 10.7-24 24zm24-8h48c4.4 0 8 3.6 8 8v48c0 4.4-3.6 8-8 8H440c-4.4 0-8-3.6-8-8V248c0-4.4 3.6-8 8-8zM88 352c-13.3 0-24 10.7-24 24v48c0 13.3 10.7 24 24 24h48c13.3 0 24-10.7 24-24V376c0-13.3-10.7-24-24-24H88zm-8 24c0-4.4 3.6-8 8-8h48c4.4 0 8 3.6 8 8v48c0 4.4-3.6 8-8 8H88c-4.4 0-8-3.6-8-8V376zm336 0v48c0 13.3 10.7 24 24 24h48c13.3 0 24-10.7 24-24V376c0-13.3-10.7-24-24-24H440c-13.3 0-24 10.7-24 24zm24-8h48c4.4 0 8 3.6 8 8v48c0 4.4-3.6 8-8 8H440c-4.4 0-8-3.6-8-8V376c0-4.4 3.6-8 8-8z"/></svg>
